sources/images/svg/i-7.svg

<?xml version="1.0" encoding="UTF-8" standalone="no"?>
<svg width="37px" height="41px" viewBox="0 0 37 41" version="1.1" xmlns="http://www.w3.org/2000/svg" xmlns:xlink="http://www.w3.org/1999/xlink" xmlns:sketch="http://www.bohemiancoding.com/sketch/ns">
    <!-- Generator: Sketch 3.0.4 (8053) - http://www.bohemiancoding.com/sketch -->
    <title>i-7</title>
    <desc>Created with Sketch.</desc>
    <defs></defs>
    <g id="Page-1" stroke="none" stroke-width="1" fill="none" fill-rule="evenodd" sketch:type="MSPage">
        <g id="i-7" sketch:type="MSLayerGroup" transform="translate(0.000000, 1.000000)" fill="#63B1FF">
            <path d="M4.67505882,26.4855556 C5.27630882,26.4855556 5.76329412,25.9872222 5.76329412,25.3744444 C5.76329412,24.76 5.27630882,24.2633333 4.67505882,24.2633333 C4.07489706,24.2633333 3.58682353,24.76 3.58682353,25.3744444 C3.58682353,25.9872222 4.07489706,26.4855556 4.67505882,26.4855556" id="Fill-1" sketch:type="MSShapeGroup"></path>
            <path d="M16.9002941,16.5827778 C16.3164559,17.1794444 16.3164559,18.1472222 16.9002941,18.7422222 C17.4841324,19.3394444 18.4319853,19.3394444 19.0158235,18.7422222 C19.5996618,18.1472222 19.5996618,17.1794444 19.0158235,16.5827778 C18.4314412,15.9872222 17.4841324,15.9872222 16.9002941,16.5827778" id="Fill-2" sketch:type="MSShapeGroup"></path>
            <path d="M17.9607794,28.9411111 C20.7901912,28.9405556 23.6190588,27.8411111 25.7715882,25.6422222 C29.6903235,21.6416667 30.0320294,15.3633333 26.8217353,10.9494444 L25.4614412,12.3383333 C27.9404412,15.9777778 27.6003676,21.0261111 24.4254412,24.2677778 C21.2570441,27.5027778 16.32625,27.8533333 12.7633676,25.3366667 L11.4019853,26.7261111 C13.3455735,28.1938889 15.6499118,28.9411111 17.9607794,28.9411111" id="Fill-3" sketch:type="MSShapeGroup"></path>
            <path d="M9.00133824,31.7027778 L9.00133824,26.7988889 L14.393,21.3022222 C13.4407941,20.3305556 12.9162647,19.0377778 12.9162647,17.6627778 C12.9162647,16.2877778 13.44025,14.9944444 14.3924559,14.0227778 C16.3588971,12.0155556 19.5577647,12.0161111 21.5236618,14.0222222 L27.2940294,8.06777778 C26.8162941,7.57944444 26.3031912,7.15166667 25.7753971,6.75333333 L28.5465882,3.925 C28.9312794,3.53166667 29.1429412,3.00833333 29.1429412,2.45111111 C29.1429412,1.89388889 28.9307353,1.37055556 28.5460441,0.978333333 L27.9050735,0.323888889 C27.1362353,-0.461111111 25.789,-0.461666667 25.0196176,0.324444444 L20.9599559,4.46888889 C16.6271471,3.41833333 11.8851618,4.59388889 8.52197059,8.02777778 C5.47382353,11.14 4.20711765,15.4077778 4.77354412,19.4888889 L0.734014706,23.6127778 C-0.272602941,24.6422222 -0.272602941,26.315 0.734014706,27.345 L1.25582353,27.8772222 L1.25201471,36.8705556 L4.73926471,36.8705556 L4.73926471,38.3238889 C4.73926471,38.8605556 5.16585294,39.2961111 5.69147059,39.2961111 C6.21708824,39.2961111 6.64367647,38.8605556 6.64367647,38.3238889 L6.64367647,36.8705556 L30.6213088,36.8705556 L30.6213088,38.3244444 C30.6213088,38.8611111 31.0478971,39.2966667 31.5735147,39.2966667 C32.0991324,39.2966667 32.5257206,38.8611111 32.5257206,38.3244444 L32.5257206,36.8705556 L36.1294118,36.8705556 L36.1294118,31.7027778 L9.00133824,31.7027778 L9.00133824,31.7027778 Z M26.3663088,1.69888889 C26.3984118,1.66611111 26.4359559,1.65944444 26.4626176,1.65944444 C26.4887353,1.65944444 26.5268235,1.66666667 26.5589265,1.69888889 L27.1998971,2.35333333 C27.2314559,2.38611111 27.2385294,2.42444444 27.2385294,2.45111111 C27.2385294,2.47833333 27.232,2.51722222 27.1998971,2.55 L24.1343382,5.67944444 C23.7637941,5.47777778 23.3856324,5.29722222 23.0014853,5.13444444 L26.3663088,1.69888889 L26.3663088,1.69888889 Z M2.08070588,24.9883333 L5.27141176,21.7305556 C5.27195588,21.7327778 5.2725,21.7355556 5.27304412,21.7377778 L6.82214706,20.1561111 C5.98420588,16.3888889 7.02347059,12.3072222 9.86811765,9.40277778 C13.8450735,5.34277778 20.0735882,4.96111111 24.5206618,8.22166667 L21.3364853,11.4722222 C18.6931618,9.97 15.2886176,10.3577778 13.0463088,12.6477778 C11.7338971,13.9872222 11.0113088,15.7683333 11.0118529,17.6627778 C11.0118529,18.8922222 11.3203676,20.0705556 11.8922353,21.115 L5.09838235,28.0672222 C4.83285294,28.3383333 4.40082353,28.3388889 4.13583824,28.0672222 L2.08070588,25.97 C1.81572059,25.6988889 1.81572059,25.2583333 2.08070588,24.9883333 L2.08070588,24.9883333 Z M34.225,34.9261111 L3.15642647,34.9261111 L3.16023529,29.7516667 C3.59770588,30.0566667 4.10536765,30.2138889 4.61520588,30.2138889 C5.27848529,30.2138889 5.94230882,29.955 6.44888235,29.4377778 L7.09692647,28.7677778 L7.09529412,33.6472222 L34.225,33.6472222 L34.225,34.9261111 L34.225,34.9261111 Z" id="Fill-4" sketch:type="MSShapeGroup"></path>
        </g>
    </g>
</svg>

<svg width="37" height="41" viewBox="0 0 37 41" xmlns="http://www.w3.org/2000/svg"><g id="i-7" transform="translate(0 1)" fill="#63B1FF" fill-rule="evenodd"><path d="M4.675 26.486c.6 0 1.088-.5 1.088-1.112 0-.614-.487-1.11-1.088-1.11-.6 0-1.088.496-1.088 1.11 0 .613.488 1.112 1.088 1.112" id="Fill-1"/><path d="M16.9 16.583c-.584.596-.584 1.564 0 2.16.584.596 1.532.596 2.116 0 .584-.596.584-1.564 0-2.16-.585-.596-1.532-.596-2.116 0" id="Fill-2"/><path d="M17.96 28.94c2.83 0 5.66-1.1 7.812-3.298 3.918-4 4.26-10.28 1.05-14.693l-1.36 1.387c2.478 3.64 2.138 8.688-1.037 11.93-3.168 3.235-8.1 3.585-11.662 1.07l-1.36 1.388c1.943 1.468 4.247 2.215 6.558 2.215" id="Fill-3"/><path d="M9 31.703V26.8l5.393-5.498c-.952-.97-1.477-2.264-1.477-3.64 0-1.374.524-2.668 1.476-3.64 1.967-2.006 5.166-2.006 7.132 0l5.77-5.954c-.478-.49-.99-.916-1.52-1.315l2.773-2.828c.384-.393.596-.917.596-1.474 0-.555-.212-1.08-.597-1.47l-.64-.655c-.77-.785-2.117-.786-2.886 0L20.96 4.47c-4.333-1.052-9.075.124-12.438 3.558-3.048 3.112-4.315 7.38-3.748 11.46l-4.04 4.125c-1.007 1.03-1.007 2.702 0 3.732l.522.532-.004 8.994H4.74v1.455c0 .537.426.972.95.972.527 0 .954-.435.954-.972V36.87H30.62v1.454c0 .537.428.973.954.973.525 0 .952-.436.952-.973V36.87h3.603v-5.167H9zM26.367 1.7c.032-.034.07-.04.097-.04.026 0 .064.007.096.04l.64.653c.03.033.04.07.04.098 0 .03-.008.068-.04.1l-3.066 3.13c-.37-.2-.748-.382-1.133-.545L26.368 1.7zM2.08 24.987l3.19-3.257c.002.003.003.006.003.008l1.55-1.582c-.84-3.767.2-7.85 3.045-10.753 3.977-4.06 10.206-4.442 14.653-1.18l-3.183 3.25c-2.643-1.503-6.047-1.115-8.29 1.175-1.312 1.34-2.035 3.12-2.034 5.015 0 1.23.308 2.408.88 3.452L5.1 28.067c-.266.27-.698.272-.963 0L2.08 25.97c-.264-.27-.264-.712 0-.982zm32.145 9.938H3.155l.005-5.174c.438.306.945.463 1.455.463.663 0 1.327-.26 1.834-.776l.646-.67-.002 4.88h27.13v1.278z" id="Fill-4"/></g></svg>
